X: 40046
T: Through The Trade
R: reel
M: 4/4
K: Dmajor
d2AF G2EG|F3A GEE2|d2AF GEE2|(3FGA GE DEFA|
d2AF GEE2|F3A GEE2|F3A GEEG|(3FGA GE DEFA||
d3f e3f|defd edBc|d3f e3d|cAGE DEFA|
d3f e3f|defd e2de|fdec dBAF|GABd cdec||

